!!!!SEGMENT: pl-wnifc--6022-n--005_potocka-emilia--thema-z-waryacyami.krn
!!!cenid: 18xx:3922
!!!COM: Potocka, Emilia
!!!COM-rismID: pe30111507
!!!CDT:
!!!CNT:
!!!OTL: Thema z Waryacyami
!!!PDT:
!!!AGN:
!!!SMS-siglum: PL-Wnifc
!!!SMS-shelfmark: 6022/n
!!!SMS-shelfwork: 005 W
!!!SMS-variant:
!!!SMS-altvar:
!!!NIFC-rismSourceID: 1001134343
!!!NIFC-rismChildID: 1001134349
!!!NIFC-islandoraID: nifc:212599
!!!URL-pdf-islandora: https://repozytorium.nifc.pl/islandora/object/nifc%3A212599/datastream/PDF/view
!!!URL-scan: https://polish.musicsources.pl/pl/lokalizacje/galeria/druki-muzyczne/16849 @EN{Scan on Polish Music Sources Website} @PL{Skany w portalu Dziedzictwo Muzyki Polskiej w otwartym dostępie}
!!!ONB-nifc: UWAGA: s. 12-15
!!!AIN: 1 piano
!!!key: C
**kern	**kern	**dynam
*part1	*part1	*part1
*staff2	*staff1	*
*I"Piano	*I"Piano	*
*Ipiano	*Ipiano	*
*ICklav	*ICklav	*
*clefF4	*clefG2	*
*k[]	*k[]	*
*C:	*C:	*
*M2/2	*M2/2	*
*met(c|)	*met(c|)	*
*2\right	*2\right	*
=1	=1	=1
!	!LO:TX:b:i:t=dolce	!
!	!LO:TX:a:t=Andante	!
4c\	4cc\ 4ee	p
4r	8cc\L 8ee	.
.	8ee\J [8gg	.
4G\	8ee\L 8gg]	.
.	(8dd\ 8ff	.
4r	8cc\ 8ee	.
.	8b\J) 8dd	.
=2	=2	=2
4C/	(8dd\L 8ff	.
.	8cc\ 8ee	.
4r	8ff\ 8aa	.
.	8ee\J) 8gg	.
8r	4ee\ 4gg	.
8C/L	.	.
8E/	4r	.
8G/J	.	.
=3	=3	=3
4c\	4cc\ 4ee	.
4r	8cc\L 8ee	.
.	8ee\J [8gg	.
4G\	8ee\L 8gg]	.
.	8dd\ 8ff	.
4r	8cc\ 8ee	.
.	8b\J 8dd	.
=4	=4	=4
4C/	8dd\L 8ff	.
.	8cc\ 8ee	.
4r	8b\ 8dd	.
.	8cc\J 8ee	.
8r	4b\ 4dd	.
8GG/L	.	.
8BB/	4r	.
8D/J	.	.
!!LO:LB:g=original
=5	=5	=5
!	!LO:TX:t=P:problem:przekreślony obiegnik	!
4G\	4b\ 4ddsS	.
4r	(8b\L 8dd	.
.	8dd\J) 8ff	.
!	!LO:TX:t=P:problem:przekreślony obiegnik	!
4G\	4cc\ 4eesS	.
4r	(8cc\L 8ee	.
.	8ee\J) [8gg	.
=6	=6	=6
4G\	8ee\L 8gg]	.
.	(8dd\ 8ff	.
4r	8cc\ 8ee	.
.	8dd\J) 8ff	.
4.G\	8cc\L 8ee	.
.	8b\J 8dd	.
.	4b\ 4dd	.
8F\	.	.
=7	=7	=7
8E\L	8r	.
8c\	8cc\L 8ccc	<
8G\	8cc\ 8ccc	[
8c\J	8cc\J 8ccc	.
8F\L	(8cc\L 8ccc	.
8d\	8aa\	.
8A\	8gg\	.
8d\J	8ff\J)	.
=8	=8	=8
4G\ 4c 4e	8ee\	f
.	4gg\	.
4G\ 4d 4f	.	.
.	8b\	.
4c\ 4e	4cc\	.
4r	4r	.
!!LO:LB:g=original
=9||	=9||	=9||
*^	*	*
!	!	!LO:TX:a:i:t=War. 1	!
2e/	2c\	16r	.
.	.	(16cc\LL	.
.	.	16b\	.
.	.	16cc\JJ	.
.	.	16ee\LL	.
.	.	16cc\	.
.	.	16gg\	.
.	.	16ee\JJ)	.
2d/	2G\	(16gg\LL	.
.	.	16ff\	.
.	.	16ee\	.
.	.	16dd\JJ	.
.	.	16cc\LL	.
.	.	16b\	.
.	.	16dd\	.
.	.	16b\JJ)	.
=10	=10	=10	=10
2c/	2E\	(16cc\LL	.
.	.	16dd\	.
.	.	16ee\	.
.	.	16ff\JJ	.
.	.	16gg\LL	.
.	.	16aa\	.
.	.	16bb\	.
.	.	16ccc\JJ)	.
8r	2ryy	4ee\ 4gg	.
8E\L 8c	.	.	.
8G\ 8d	.	4r	.
8G\J 8d	.	.	.
=11	=11	=11	=11
2e/	2c\	16r	.
.	.	(16cc\LL	.
.	.	16b\	.
.	.	16cc\JJ	.
.	.	16ee\LL	.
.	.	16cc\	.
.	.	16gg\	.
.	.	16ee\JJ	.
2d/	2G\	(16gg\LL)	.
.	.	16ff\	.
.	.	16ee\	.
.	.	16dd\JJ	.
.	.	16cc\LL	.
.	.	16b\	.
.	.	16dd\)	.
.	.	16b\JJ	.
=12	=12	=12	=12
2c/	2E\	(16cc\LL	.
.	.	16b\	.
.	.	16cc\	.
.	.	16ee\JJ	.
.	.	16gg\LL	.
.	.	16ff#X\	.
.	.	16gg\	.
.	.	16ee\JJ)	.
8r	2ryy	4b\ 4dd	.
8G\L 8d	.	.	.
8c\ 8e	.	4r	.
8c\J 8e	.	.	.
!!LO:LB:g=original
=13	=13	=13	=13
2f/	2d\	16r	.
.	.	(16b\LL	.
.	.	16a#X\	.
.	.	16b\JJ	.
.	.	16dd\LL)	.
.	.	16b\	.
.	.	16gg\	.
.	.	16b\JJ	.
2e/	2c\	16r	.
.	.	(16cc\LL	.
.	.	16b\	.
.	.	16cc\JJ	.
.	.	16ee\LL	.
.	.	16cc\	.
.	.	16gg\)	.
.	.	16cc\JJ	.
=14	=14	=14	=14
4.d/	4.B\	16r	.
.	.	(16dd\LL	.
.	.	16cc#X\	.
.	.	16dd\JJ	.
.	.	16aa\LL	.
.	.	16gg\	.
8d/	8B\	16ee\	.
.	.	16ccn\JJ)	.
(2d/	4.G\	(16ccc\LL	.
.	.	16bb\	.
.	.	16aa\	.
.	.	16gg\JJ)	.
.	.	16ff#X\LL	.
.	.	16gg\	.
.	8Fn\	16aa\	.
.	.	16bb\JJ	.
=15	=15	=15	=15
4c/)	4E\	16ccc`\LL	.
.	.	(16gg\	.
.	.	16aa\	.
.	.	16gg\JJ	.
4r	4ryy	16ffn\LL	.
.	.	16ee\	.
.	.	16dd\	.
.	.	16cc\JJ)	.
4d\ 4F\ 4A	4ryy	16r	.
.	.	(16a\LL	.
.	.	16g#X\	.
.	.	16a\JJ	.
4r	4ryy	16aa\LL	.
.	.	16ff\	.
.	.	16ee\	.
.	.	16dd\JJ)	.
*v	*v	*	*
=16	=16	=16
4G\ 4c 4e	16r	.
.	16ee\LL	.
.	16dd#X\	.
.	16ee\JJ	.
4G\ 4d 4f	16gg\LL	.
.	16g\	.
.	16gg\	.
.	16b\JJ	.
4c\ 4e	4cc\	.
4r	4r	.
!!LO:LB:g=original
=17||	=17||	=17||
*Xbrackettup	*	*
*	*^	*
!LO:TUP:b:problem:klamra łukowa i cyfra	! 	!	!
!LO:TUP:b:r=2:num=6	!LO:TX:a:i:t=War. 2	!	!
12C/L	4ee\ 4cc\	4ryy	.
12E/	.	.	.
12G/J	.	.	.
12c/L	4r	4ryy	.
12B/	.	.	.
12c/J	.	.	.
!LO:TUP:b:problem:klamra łukowa i cyfra	! 	!	!
!LO:TUP:b:r=2:num=6	!	!	!
12GG/L	4dd/	2b\	.
12BB/	.	.	.
12D/J	.	.	.
12G/L	32ee/LLL	.	.
.	32dd/	.	.
.	32cc/	.	.
12F#X/	.	.	.
.	32dd/JJJ	.	.
.	8ee/	.	.
12G/J	.	.	.
*	*v	*v	*
=18	=18	=18
!LO:TUP:b:problem:klamra łukowa i cyfra	! 	!
!LO:TUP:b:r=2:num=6	!	!
12C/L	4.cc/	.
12E/	.	.
12G/J	.	.
12c/L	.	.
12B/	.	.
.	8ff\ 8aa	.
12c/J	.	.
*	*Xbrackettup	*
!	!LO:TUP:a:problem:klamra łukowa i cyfra	!
!	!LO:TUP:b:r=2:num=6	!
4C/	12ee\L 12gg	.
.	12ff\ 12aa	.
.	12ee\J 12gg	.
4r	12ee\L 12gg	.
.	12dd#X\ 12ff#X	.
.	12ddn\J 12ffn	.
=19	=19	=19
*	*^	*
!LO:TUP:b:problem:klamra łukowa i cyfra	! 	!	!
!LO:TUP:b:r=2:num=6	!	!	!
12C/L	4ee\ 4cc\	4ryy	.
12E/	.	.	.
12G/J	.	.	.
12c/L	4r	4ryy	.
12B/	.	.	.
12c/J	.	.	.
!LO:TUP:b:problem:klamra łukowa i cyfra	! 	!	!
!LO:TUP:b:r=2:num=6	!	!	!
12GG/L	4dd/	2b\	.
12BB/	.	.	.
12D/J	.	.	.
12G/L	32ee/LLL	.	.
.	32dd/	.	.
.	32cc/	.	.
12F#X/	.	.	.
.	32dd/JJJ	.	.
.	8ee/	.	.
12G/J	.	.	.
*	*v	*v	*
=20	=20	=20
!LO:TUP:b:problem:klamra łukowa i cyfra	! 	!
!LO:TUP:b:r=2:num=6	!	!
12C/L	4.cc\	.
12E/	.	.
12G/J	.	.
12c/L	.	.
12B/	.	.
.	8cc\ 8ee	.
12c/J	.	.
!	!LO:TUP:a:problem:klamra łukowa i cyfra	!
!	!LO:TUP:b:r=2:num=6	!
4G/	12b\L 12dd	.
.	12cc\ 12ee	.
.	12b\J 12dd	.
4r	12b\L 12dd	.
.	12cc\ 12ee-X	.
.	12cc#X\J 12een	.
!!LO:PB:g=original
=21	=21	=21
*	*^	*
!LO:TUP:b:problem:klamra łukowa i cyfra	! 	!	!
!LO:TUP:b:r=2:num=6	!	!	!
12GG/L	4.ff/	2dd\	.
12BB/	.	.	.
12D/J	.	.	.
12G/L	.	.	.
12D/	.	.	.
.	32qqgg/LLL	.	.
.	32qqff/	.	.
.	32qqee/	.	.
.	32qqff/JJJ	.	.
.	8gg/	.	.
12BB/J	.	.	.
!LO:TUP:b:problem:klamra łukowa i cyfra	! 	!	!
!LO:TUP:b:r=2:num=6	!	!	!
12GG/L	4.ee/	2cc\	.
12C/	.	.	.
12E/J	.	.	.
12G/L	.	.	.
12E/	.	.	.
.	32qqff/LLL	.	.
.	32qqee/	.	.
.	32qqdd/	.	.
.	32qqee/JJJ	.	.
.	8ff/	.	.
12C/J	.	.	.
=22	=22	=22	=22
!LO:TUP:b:problem:klamra łukowa i cyfra	! 	!	!
!LO:TUP:b:r=2:num=6	!	!	!
12GG/L	4.dd/	2b\	.
12BB/	.	.	.
12D/J	.	.	.
12G/L	.	.	.
12D/	.	.	.
.	32qqee/LLL	.	.
.	32qqdd/	.	.
.	32qqcc#X/	.	.
.	32qqdd/JJJ	.	.
.	8gg/	.	.
12BB/J	.	.	.
!LO:TUP:b:problem:klamra łukowa i cyfra	! 	!	!
!LO:TUP:b:r=2:num=6	!	!	!
12GG/L	4dd/	4b\	.
12BB/	.	.	.
12D/J	.	.	.
12G/L	4r	4ryy	.
12F#X/	.	.	.
12Fn/J	.	.	.
*	*v	*v	*
=23	=23	=23
*Xtuplet	*	*
12E\L	4.cc\ 4.ccc	rf
12G\	.	.
12c\J	.	.
*rep	*	*
12E\L	.	.
12G\	.	.
.	8b-X\ 8bb-X	.
12c\J	.	.
*Xrep	*	*
12F\L	4a\ 4aa	.
12A\	.	.
12d\J	.	.
*rep	*	*
12F\L	8r	.
12A\	.	.
.	8dd\ 8ff	.
12d\J	.	.
*Xrep	*	*
=24	=24	=24
*	*^	*
12G\L	4cc/	4a\	.
12c\	.	.	.
12e\J	.	.	.
12G\L	8.dd/L	4b\	.
12d\	.	.	.
12f\J	.	.	.
.	32qqee/LLL	.	.
.	32qqdd/	.	.
.	32qqcc/	.	.
.	32qqdd/JJJ	.	.
.	16ee/Jk	.	.
4c\ 4e	4cc\	2ryy	.
4r	4r	.	.
*	*v	*v	*
!!LO:LB:g=original
=25||	=25||	=25||
*k[b-e-a-]	*k[b-e-a-]	*
*M2/2	*M2/2	*
*met(c|)	*met(c|)	*
!	!LO:TX:a:i:t=War. 3	!
!	!LO:TX:a:i:t=piu Adagio	!
4CC/ 4C	2cc\ 2ee- 2gg 2ccc	f
8CC/L 8C	.	.
8EE-/J 8E-	.	.
8GG/L 8G	2dd\ 2ff 2gg 2bbn	.
8FF/ 8F	.	.
8EE-/ 8E-	.	.
8DD/J 8D	.	.
=26	=26	=26
8CC/L 8C	(2ee-\ 2ccc	.
8AAA-/ 8AA-	.	.
8GGG/ 8GG	.	.
8FFF#X/J 8FF#X	.	.
4GGG/ 4GG	8ee-\L) 8bbn	<
.	(8gg\	[
4r	8ff#X\	.
.	8ffn\J)	.
=27	=27	=27
!	!LO:TX:b:i:t=dolce	!
8A-\L	8.ee-\L	p
8e-\	.	.
.	32dd\LL	.
.	32ee-\JJJ	.
8c\	8aa-\L	.
8e-\J	8cc\J	.
8F\L	16dd-X\LL	.
.	(16aa-\	.
8d-X\	16gg-X\	.
.	16ff\JJ	.
8A-\	16ee-\LL	.
.	16dd-\	.
!	!LO:TUP:a:problem:klamra łukowa i cyfra 	!
8d-\J	24ff\)	.
.	24ee-\	.
.	24dd-\JJ	.
=28	=28	=28
*^	*	*
8e-/L	2G\	8cc\L	.
8c/	.	(8ee-\	.
8Bn/	.	8dd\	.
8c/J	.	8ee-\J	.
8B/L	8G\	4dd\)	.
8GG/ 8G	8ryy	.	.
(8FF#X/ 8F#X	4ryy	4r	.
8FFn/J) 8Fn	.	.	.
*v	*v	*	*
=29	=29	=29
16EE-/LL 16E-	2cc\ 2ee- 2gg 2ccc	ff
16DD/ 16D	.	.
16CC/ 16C	.	.
16BBBn/JJ 16BBn	.	.
16CC/LL 16C	.	.
16DD/ 16D	.	.
16EE-/ 16E-	.	.
16CC/JJ 16C	.	.
!!LO:LB:g=original
16GG/LL 16G	2dd\ 2ff 2gg 2bbn	.
16AA-/ 16A-	.	.
16GG/ 16G	.	.
16FF/JJ 16F	.	.
16EE-/LL 16E-	.	.
16FF/ 16F	.	.
16EE-/ 16E-	.	.
16DD/JJ 16D	.	.
=30	=30	=30
(8CC/L 8C	(2ee-\ 2ccc	.
8AAA-/ 8AA-	.	.
8GGG/ 8GG	.	.
8FFF#X/J) 8FF#X	.	.
4GGG/ 4GG	8dd\L) 8bbn	>
.	(8gg\	.
4r	8ff#X\	]
.	8ffn\J)	.
=31	=31	=31
!	!LO:TX:b:i:t=dolce	!
8A-\L	8.ee-\L	.
8e-\	.	.
.	32dd\LL	.
.	32ee-\JJJ	.
8c\	8aa-\L	.
8e-\J	8gg\J	.
8A-\L	16ff\LL	.
.	(16ccc\	.
8f\	16bb-\	.
.	16aa-\JJ	.
8c\	16gg\LL)	.
.	16ff\	.
!	!LO:TUP:a:problem:klamra łukowa i cyfra 	!
8f\J	24aa-\	.
.	24gg\	.
.	24ff\JJ	.
*clefG2	*	*
=32	=32	=32
16B-/LL	8.gg\L	.
16g/	.	.
16e-/	.	.
16g/JJ	16ee-\K	.
16B-/LL	8.bb-\	.
16a-/	.	.
16f/	.	.
16a-/JJ	16dd\Jk	.
8e-/L 8g	4ee-\	.
16b-/L	.	.
16a-/JJ	.	.
16g/LL	4r	.
16f/	.	.
16g/	.	.
16e-/JJ	.	.
=33	=33	=33
16B-/LL	8.gg\L	.
16g/	.	.
16en/	.	.
16g/JJ	16een\K	.
*rep	*	*
16B-/LL	8.ccc\	.
16g/	.	.
16e/	.	.
16g/JJ	16ee\Jk	.
*Xrep	*	*
8A-/	16ff\LL	.
.	16cc\	.
!	!LO:TUP:a:problem:klamra łukowa i cyfra 	!
8r	24aa-\	.
.	24gg\	.
.	24ff\JJ	.
4A-/ 4c 4f	4cc\ 4ff 4aa- 4ccc	rf
=34	=34	=34
16A-/LL	8.ff\L	.
16f/	.	.
16d/	.	.
16f/JJ	16dd\K	.
*rep	*	*
16A-/LL	8.bb-\	.
16f/	.	.
16d/	.	.
16f/JJ	16dd\Jk	.
*Xrep	*	*
8G/	16ee-\LL	.
.	16b-\	.
!	!LO:TUP:a:problem:klamra łukowa i cyfra 	!
8r	24gg\	.
.	24ff\	.
.	24ee-\JJ	.
*clefF4	*	*
4F\ 4A-X 4Bn 4d	4dd\ 4ff 4aa- 4ddd	rf
!!LO:LB:g=original
=35	=35	=35
2E-\ 2G 2c	16r	.
.	16cc\LL 16ccc	.
.	16ee-\ 16eee-	.
.	16dd\JJ 16ddd	.
.	16cc\LL 16ccc	.
.	16dd\ 16ddd	.
.	16ee-\ 16eee-	.
.	16cc\JJ 16ccc	.
2F\ 2A- 2d	16r	.
.	16a-\LL 16aa-	.
.	16g\ 16gg	.
.	16f\JJ 16ff	.
.	16en\LL 16een	.
.	16f\ 16ff	.
.	16g\ 16gg	.
.	16a-\JJ 16aa-	.
=36	=36	=36
16r	4g\ 4cc 4ee- 4gg	.
16GGG/LL 16GG	.	.
16CC/ 16C	.	.
16EE-/JJ 16E-	.	.
8GG/L 8G	8r	.
8GG/J 8G	8dd\ 8ff 8gg 8bbn	.
16r	4cc\ 4ee- 4gg 4ccc	.
16CC/LL 16C	.	.
16EE-/ 16E-	.	.
16GG/JJ 16G	.	.
8C/L 8c	4r	.
8E-/J 8e-	.	.
*clefG2	*	*
=37	=37	=37
16B-/LL	8.gg\L	p
16g/	.	.
16en/	.	.
16g/JJ	16een\K	.
*rep	*	*
16B-/LL	8.ccc\	.
16g/	.	.
16e/	.	.
16g/JJ	16ee\Jk	.
*Xrep	*	*
8A-/	16ff\LL	.
.	16cc\	.
!	!LO:TUP:a:problem:klamra łukowa i cyfra 	!
8r	24aa-\	.
.	24gg\	.
.	24ff\JJ	.
4A-/ 4c 4f	4cc\ 4ff 4aa- 4ccc	rf
=38	=38	=38
16A-/LL	8.ff\L	.
16f/	.	.
16d/	.	.
16f/JJ	16dd\K	.
*rep	*	*
16A-/LL	8.bb-\	.
16f/	.	.
16d/	.	.
16f/JJ	16dd\Jk	.
*Xrep	*	*
8G/	16ee-\LL	.
.	16b-\	.
!	!LO:TUP:a:problem:klamra łukowa i cyfra 	!
8r	24gg\	.
.	24ff\	.
.	24ee-\JJ	.
*clefF4	*	*
4F\ 4A-X 4B- 4dn	4dd\ 4ff 4aan 4bbn	rf
!!LO:LB:g=original
=39	=39	=39
2E-\ 2G 2c	16r	ff
.	16cc\LL 16ccc	.
.	16ee-\ 16eee-	.
.	16dd\JJ 16ddd	.
.	16cc\LL 16ccc	.
.	16dd\ 16ddd	.
.	16ee-\ 16eee-	.
.	16cc\JJ 16ccc	.
2F\ 2A- 2c 2d	16r	.
.	16a-\LL 16aa-	.
.	16g\ 16gg	.
.	16f\JJ 16ff	.
.	16en\LL 16een	.
.	16f\ 16ff	.
.	16g\ 16gg	.
.	16a-\JJ 16aa-	.
=40	=40	=40
16r	4g\ 4cc 4ee- 4gg	.
16GGG/LL 16GG	.	.
16CC/ 16C	.	.
16EE-'/JJ 16E-	.	.
8GG/L 8G	8r	.
8GG/J 8G	8dd\ 8ff 8gg 8bbn	.
4CC/ 4C	4cc\ 4ee- 4gg 4ccc	.
4r	4r	.
!!LO:PB:g=original
=41||	=41||	=41||
*k[]	*k[]	*
*	*	*
*M4/4	*M4/4	*
*met(c)	*met(c)	*
*tuplet	*	*
!LO:TUP:b:problem:klamra łukowa i cyfra	!LO:TUP:a:problem:klamra łukowa i cyfra	!
!	!LO:TX:a:i:t=War. 4	!
!	!LO:TX:a:i:t=Tempo primo	!
24CC/LL	24ccc\LL	ff
24EE/	24gg\	.
24GG/	24ee\	.
24C/	24cc\	.
24GG/	24ee\	.
24EE/JJ	24gg\JJ	.
!	!LO:TUP:a:problem:klamra łukowa i cyfra	!
8CC/	24ccc\LL	.
.	24bb\	.
.	24aa\	.
8r	24gg\	.
.	24ff\	.
.	24ee\JJ	.
!	!LO:TUP:a:problem:klamra łukowa i cyfra	!
4r	24dd\LL	.
.	24aa\	.
.	24gg\	.
.	24ff\	.
.	24ee\	.
.	24dd\JJ	.
!	!LO:TUP:a:problem:klamra łukowa i cyfra	!
(<4G\ 4d 4f	24cc\LL	.
.	24b\	.
.	24a\	.
.	24g\	.
.	24a\	.
.	24b\JJ	.
=42	=42	=42
!	!LO:TUP:a:problem:klamra łukowa i cyfra	!
8c\) 8e	24cc\LL	.
.	24ee\	.
.	24gg\	.
8r	24ccc\	.
.	24gg\	.
.	24ee\JJ	.
*clefG2	*	*
!	!LO:TUP:a:problem:klamra łukowa i cyfra	!
(4f/ 4a	24cc\LL	.
.	24ff\	.
.	24aa\	.
.	24ccc\	.
.	24aa\	.
.	24ff\JJ	.
8e/) 8g	24r	.
!	!LO:TUP:a:problem:klamra łukowa i cyfra	!
.	24cc\LL	.
.	24cc#X\	.
8r	24dd\	.
.	24dd#X\	.
.	24ee\JJ	.
!	!LO:TUP:a:problem:klamra łukowa i cyfra	!
4r	28ff\LL	.
.	28ff#X\	.
.	28gg\	.
.	28gg#X\	.
.	28aa\	.
.	28bb-X\	.
.	28bbn\JJ	.
*clefF4	*	*
=43	=43	=43
*Xtuplet	*	*
!	!LO:TUP:a:problem:klamra łukowa i cyfra	!
24CC/LL	24ccc\LL	.
24EE/	24gg\	.
24GG/	24ee\	.
24C/	24cc\	.
24GG/	24ee\	.
24EE/JJ	24gg\JJ	.
!	!LO:TUP:a:problem:klamra łukowa i cyfra	!
8CC/	24ccc\LL	.
.	24bb\	.
.	24aa\	.
8r	24gg\	.
.	24ff\	.
.	24ee\JJ	.
!!LO:LB:g=original
!	!LO:TUP:a:problem:klamra łukowa i cyfra	!
4r	24dd\LL	.
.	24aa\	.
.	24gg\	.
.	24ff\	.
.	24ee\	.
.	24dd\JJ	.
!	!LO:TUP:a:problem:klamra łukowa i cyfra	!
4G\ 4d 4f	24cc\LL	.
.	24b\	.
.	24a\	.
.	24g\	.
.	24a\	.
.	24b\JJ	.
=44	=44	=44
!	!LO:TUP:a:problem:klamra łukowa i cyfra	!
8c\ 8e	24cc\LL	.
.	24ee\	.
.	24gg\	.
8ryy	24ccc\	.
.	24gg\	.
.	24ee\JJ	.
!	!LO:TUP:a:problem:klamra łukowa i cyfra	!
8B\L 8d	24ddd\LL	.
.	24gg\	.
.	24ff\	.
8c\J 8e	24ccc\	.
.	24gg\	.
.	24ee\JJ	.
!	!LO:TUP:b:problem:klamra łukowa i cyfra	!
4G\ 4B 4d	24r	.
.	24g/LL	.
.	24g#X/	.
.	24a/	.
.	24b-X/	.
.	24bn/JJ	.
!	!LO:TUP:a:problem:klamra łukowa i cyfra	!
4r	28cc\LL	.
.	28cc#X\	.
.	28dd\	.
.	28dd#X\	.
.	28ee\	.
.	28ff\	.
.	28ff#X\JJ	.
=45	=45	=45
!	!LO:TUP:a:problem:klamra łukowa i cyfra	!
4r	24gg\LL	.
.	24ff\	.
.	24gg\	.
.	24gg#X\	.
.	24aa\	.
.	24aa#X\JJ	.
*clefG2	*	*
!	!LO:TUP:a:problem:klamra łukowa i cyfra	!
(4dd\ 4ff	24bb\LL	.
.	24ddd\	.
.	24ccc\	.
.	24bb\	.
.	24aan\	.
.	24gg#\JJ	.
!	!LO:TUP:a:problem:klamra łukowa i cyfra	!
8cc\) 8ee	24ccc\LL	.
.	24eee\	.
.	24ddd\	.
8r	24ccc\	.
.	24bb\	.
.	24aa\JJ	.
!	!LO:TUP:a:problem:klamra łukowa i cyfra	!
4r	24gg#\LL	.
.	24ff#X\	.
.	24ffn\	.
.	24ee\	.
.	24dd\	.
.	24cc\JJ	.
=46	=46	=46
!	!LO:TUP:a:problem:klamra łukowa i cyfra	!
4r	24b\LL	.
.	24dd\	.
.	24cc\	.
.	24b\	.
.	24a\	.
.	24g\JJ	.
*clefF4	*	*
!	!LO:TUP:a:problem:klamra łukowa i cyfra	!
(4c\ 4e	24cc/LL	.
.	24b/	.
.	24a/	.
.	24g/	.
.	24f/	.
.	24e/JJ	.
!!LO:LB:g=original
8G\) 8d	24r	.
!	!LO:TUP:b:problem:klamra łukowa i cyfra	!
.	24g/LL	.
.	24g#X/	.
8r	24a/	.
.	24b/	.
.	24bn/JJ	.
!	!LO:TUP:a:problem:klamra łukowa i cyfra	!
4r	28cc\LL	.
.	28cc#X\	.
.	28dd\	.
.	28dd#X\	.
.	28ee\	.
.	28ff\	.
.	28ff#X\JJ	.
=47	=47	=47
!	!LO:TUP:a:problem:klamra łukowa i cyfra	!
4r	24gg\LL	.
.	24ee\	.
.	24cc\	.
.	24ccc\	.
.	24gg\	.
.	24ee\JJ	.
!	!LO:TUP:a:problem:klamra łukowa i cyfra	!
(4E\ 4G 4c	24dd\LL	.
.	24ddd\	.
.	24ccc\	.
.	24bb\	.
.	24bb-X\	.
.	24aa\JJ	.
!	!LO:TUP:a:problem:klamra łukowa i cyfra	!
8F\) 8A	24dd\LL	.
.	24ddd\	.
.	24ccc\	.
8r	24bb-\	.
.	24bb-X\	.
.	24aa\JJ	.
!	!LO:TUP:a:problem:klamra łukowa i cyfra	!
4r	24gg#X\LL	.
.	24aa\	.
.	24ff\	.
.	24ee\	.
.	24ff\	.
.	24dd\JJ	.
=48	=48	=48
!	!LO:TUP:a:problem:klamra łukowa i cyfra	!
4G\ 4c 4e	24ee\LL	.
.	24gg\	.
.	24ff\	.
.	24ee\	.
.	24ff\	.
.	24gg\JJ	.
!	!LO:TUP:a:problem:klamra łukowa i cyfra	!
4G\ 4d 4f	24dd\LL	.
.	24ee\	.
.	24ff\	.
.	24gg\	.
.	24aa\	.
.	24bb\JJ	.
4c\ 4e	4ccc\	.
4r	4r	.
!!LO:LB:g=original
=49||	=49||	=49||
*M3/4	*M3/4	*
!LO:TX:t=P:problem:mixed beam	!LO:TX:b:i:t=dolce	!
!	!LO:TX:a:i:t=War.5	!
!	!LO:TX:a:i:t=alla pollaca.	!
16C/LL	4.cc\ 4.ee	.
16c\	.	.
16B\	.	.
16c\JJ	.	.
4C/	.	.
.	(8cc\ 8ee	.
4r	8ee\L) 8gg	.
.	8ee\J 8gg	.
=50	=50	=50
!LO:TX:t=P:problem:mixed beam	!	!
16GG/LL	4.ee\ 4.gg	.
16G\	.	.
16F#X\	.	.
16G\JJ	.	.
4GG/	.	.
.	(8dd\L 8ff	.
4r	8cc\ 8ee	.
.	8b\J) 8dd	.
=51	=51	=51
16CC/LL	8cc\	.
16C/	.	.
16BB/	4cc\	.
16C/JJ	.	.
4CC/	.	.
.	8b\L 8dd	.
4r	8cc\ 8ee	.
.	8dd\J 8ff	.
=52	=52	=52
4r	8cc\L 8ee	.
.	8b\J 8dd	.
8r	4b\ 4dd	.
8G\L 8B	.	.
8A\ 8c	4r	.
8A#X\J 8c#X	.	.
*clefG2	*	*
=53	=53	=53
16B/LL	8.ff\L	.
16g/	.	.
16d/	.	.
16g/JJ	(8ff\J	.
*rep	*	*
16B/LL	.	.
16g/	16bb\LL	.
16d/	16ddd\	.
16g/JJ	16ccc\JJ	.
*Xrep	*	*
*rep	*	*
16B/LL	16bb\LL)	.
16g/	16aa\	.
16d/	16gg\	.
16g/JJ	16ff\JJ	.
*Xrep	*	*
=54	=54	=54
16c/LL	16ee\LL	.
16g/	16ccc\	.
16e/	16bb\	.
16g/JJ	16ccc\JJ	.
*rep	*	*
16c/LL	8ee\L 8gg	.
16g/	.	.
!	!LO:TX:t=P:problem:przekreślony obiegnik	!
16e/	8ee\J 8ggsS	.
16g/JJ	.	.
*Xrep	*	*
*rep	*	*
16c/LL	8cc\L 8ee	.
16g/	.	.
!	!LO:TX:t=P:problem:przekreślony obiegnik	!
16e/	8cc\J 8eesS	.
16g/JJ	.	.
*Xrep	*	*
!!LO:LB:g=original
=55	=55	=55
16B/LL	8.ff\L	.
16g/	.	.
16d/	.	.
16g/JJ	(8ff\J	.
*rep	*	*
16B/LL	.	.
16g/	16bb\LL	.
16d/	16ddd\	.
16g/JJ	16ccc\JJ	.
*Xrep	*	*
*rep	*	*
16B/LL	16bb\LL)	.
16g/	16aa\	.
16d/	16gg\	.
16g/JJ	16ff\JJ	.
*Xrep	*	*
=56	=56	=56
16c/LL	16ee\LL	.
16g/	16ccc\	.
16e/	16bb\	.
16g/JJ	16ccc\JJ	.
*rep	*	*
16c/LL	8ee\L 8gg	.
16g/	.	.
!	!LO:TX:t=P:problem:przekreślony obiegnik	!
16e/	8ee\J 8ggsS	.
16g/JJ	.	.
*Xrep	*	*
*rep	*	*
16c/LL	8cc\L 8ee	.
16g/	.	.
!	!LO:TX:t=P:problem:przekreślony obiegnik	!
16e/	8cc\J 8eesS	.
16g/JJ	.	.
*Xrep	*	*
*clefF4	*	*
=57	=57	=57
16F\LL	(16ee\LL	.
16d\	16dd\	.
16A\	16cc#X\	.
16d\JJ	16dd\JJ	.
*rep	*	*
16F\LL	16ee\LL	.
16d\	16dd\	.
16A\	16ff\	.
16d\JJ	16ee\JJ	.
*Xrep	*	*
*rep	*	*
16F\LL	16gg#X\LL	.
16d\	16aa\	.
16A\	16ff\	.
16d\JJ	16dd\JJ)	.
*Xrep	*	*
=58	=58	=58
8G\L 8c 8e	16ee\LL	.
.	16gg\	.
8G\J 8d 8f	16b\	.
.	16dd\JJ	.
.	4qqb/ 4qqdd	.
8r	2cc\	.
8G\ 8d 8f	.	.
4c\ 4e	.	.
=59	=59	=59
16G#X\LL	8ee\	.
16e\	.	.
16B\	(4ee\	.
16e\JJ	.	.
*rep	*	*
16G#\LL	.	.
16e\	.	.
16B\	8ff\L	.
16e\JJ	.	.
*Xrep	*	*
*rep	*	*
16G#\LL	8ee\	.
16e\	.	.
16B\	8dd\J)	.
16e\JJ	.	.
*Xrep	*	*
=60	=60	=60
16A\LL	(16dd\LL	.
16e\	16cc\	.
16c\	16b\	.
16e\JJ	16cc\JJ)	.
*rep	*	*
16A\LL	4.ee\	.
16e\	.	.
16c\	.	.
16e\JJ	.	.
*Xrep	*	*
*rep	*	*
16A\LL	.	.
16e\	.	.
16c\	8cc\	.
16e\JJ	.	.
*Xrep	*	*
=61	=61	=61
16F#X\LL	8dd\	.
16d\	.	.
16A\	(4dd\	.
16d\JJ	.	.
*rep	*	*
16F#\LL	.	.
16d\	.	.
16A\	8ee\L	.
16d\JJ	.	.
*Xrep	*	*
*rep	*	*
16F#\LL	8dd\	.
16d\	.	.
16A\	8cc\J)	.
16d\JJ	.	.
*Xrep	*	*
=62	=62	=62
16G\LL	(16cc\LL	.
16d\	16b\	.
16B\	16a\	.
16d\JJ	16b\JJ)	.
*rep	*	*
16G\LL	4.dd\	.
16d\	.	.
16B\	.	.
16d\JJ	.	.
*Xrep	*	*
*rep	*	*
16G\LL	.	.
16d\	.	.
16B\	8b\	.
16d\JJ	.	.
*Xrep	*	*
!!LO:PB:g=original
=63	=63	=63
4G\ 4B	8.dd\L 8.ff	.
.	16cc\Jk 16ee	.
4r	8b\L 8dd	.
.	8cc\J 8ee	.
8r	(16dd\LL 16ff	.
.	16cc\ 16ee	.
8G\	16dd\ 16ff	.
.	16b\JJ) 16dd	.
=64	=64	=64
8.c\L	8.cc\L 8.ee	.
16G\Jk	16b\Jk 16dd	.
16C\LL	16cc\LL	.
16D\	16dd\	.
16E\	16ee\	.
16F#X\JJ	16ff#X\JJ	.
!	!LO:TX:t=P:problem:mixed beam	!
8G/L	8gg\L	.
8GG/J	8g/J	.
*clefG2	*	*
=65	=65	=65
16B/LL	8ffn\L	.
16g/	.	.
16d/	(8.ff\J	.
16g/JJ	.	.
*rep	*	*
16B/LL	.	.
16g/	16bb\LL	.
16d/	16ddd\	.
16g/JJ	16ccc\JJ	.
*Xrep	*	*
*rep	*	*
16B/LL	16bb\LL	.
16g/	16aa\	.
16d/	16gg\	.
16g/JJ	16ff\JJ)	.
*Xrep	*	*
=66	=66	=66
16c/LL	16ee\LL	.
16g/	16ccc\	.
16e/	16bb\	.
16g/JJ	16ccc\JJ	.
*rep	*	*
16c/LL	8ee\L 8gg	.
16g/	.	.
!	!LO:TX:t=P:problem:przekreślony obiegnik	!
16e/	8ee\J 8ggsS	.
16g/JJ	.	.
*Xrep	*	*
*rep	*	*
16c/LL	8cc\L 8ee	.
16g/	.	.
!	!LO:TX:t=P:problem:przekreślony obiegnik	!
16e/	8cc\J 8eesS	.
16g/JJ	.	.
*Xrep	*	*
=67	=67	=67
16B/LL	8ff\L	.
16g/	.	.
16d/	8.ff\J	.
16g/JJ	.	.
*rep	*	*
16B/LL	.	.
16g/	16bb\LL	.
16d/	16ddd\	.
16g/JJ	16ccc\JJ	.
*Xrep	*	*
*rep	*	*
16B/LL	16bb\LL	.
16g/	16aa\	.
16d/	16gg\	.
16g/JJ	16ff\JJ	.
*Xrep	*	*
=68	=68	=68
16c/LL	16ee\LL	.
16g/	16ccc\	.
16e/	16bb\	.
16g/JJ	16ccc\JJ	.
*rep	*	*
16c/LL	8ee\L 8gg	.
16g/	.	.
!	!LO:TX:t=P:problem:przekreślony obiegnik	!
16e/	8ee\J 8ggsS	.
16g/JJ	.	.
*Xrep	*	*
*rep	*	*
16c/LL	8cc\L 8ee	.
16g/	.	.
!	!LO:TX:t=P:problem:przekreślony obiegnik	!
16e/	8cc\J 8eesS	.
16g/JJ	.	.
*Xrep	*	*
*clefF4	*	*
=69	=69	=69
16F\LL	(16ee\LL	.
16d\	16dd\	.
16A\	16cc#X\	.
16d\JJ	16dd\JJ	.
*rep	*	*
16F\LL	16ff\LL	.
16d\	16ee\	.
16A\	16gg\	.
16d\JJ	16ff\JJ	.
*Xrep	*	*
*rep	*	*
16F\LL	16gg#X\LL	.
16d\	16aa\	.
16A\	16ff\	.
16d\JJ	16dd\JJ)	.
*Xrep	*	*
!!LO:LB:g=original
=70	=70	=70
8G\L 8c 8e	16ee\LL	.
.	16ggn\	f
8G\J 8d 8f	16b\	.
.	16dd\JJ	.
.	4qqb/ 4qqdd	.
8r	2cc\	.
8G\ 8d 8f	.	.
4c\ 4e	.	.
=71	=71	=71
16G#X\LL	8ee\	.
16e\	.	.
16B\	4ee\	.
16e\JJ	.	.
*rep	*	*
16G#\LL	.	.
16e\	.	.
16B\	8ff\L	.
16e\JJ	.	.
*Xrep	*	*
*rep	*	*
16G#\LL	8ee\	.
16e\	.	.
16B\	8dd\J	.
16e\JJ	.	.
*Xrep	*	*
=72	=72	=72
16A\LL	(16dd\LL	.
16e\	16cc\	.
16c\	16b\	.
16e\JJ	16cc\JJ)	.
*rep	*	*
16A\LL	4.ee\	.
16e\	.	.
16c\	.	.
16e\JJ	.	.
*Xrep	*	*
*rep	*	*
16A\LL	.	.
16e\	.	.
16c\	8cc\	.
16e\JJ	.	.
*Xrep	*	*
=73	=73	=73
16F#X\LL	8dd\	.
16d\	.	.
16A\	4dd\	.
16d\JJ	.	.
*rep	*	*
16F#\LL	.	.
16d\	.	.
16A\	8ee\L	.
16d\JJ	.	.
*Xrep	*	*
*rep	*	*
16F#\LL	8dd\	.
16d\	.	.
16A\	[8cc\J	.
16d\JJ	.	.
*Xrep	*	*
=74	=74	=74
16G\LL	16cc\LL]	.
16d\	16b\	.
16B\	16a\	.
16d\JJ	16b\JJ	.
*rep	*	*
16G\LL	4.dd\	.
16d\	.	.
16B\	.	.
16d\JJ	.	.
*Xrep	*	*
*rep	*	*
16G\LL	.	.
16d\	.	.
16B\	8b\	.
16d\JJ	.	.
*Xrep	*	*
=75	=75	=75
4G\ 4B	8.dd\L 8.ff	.
.	16cc\Jk 16ee	.
4r	(8b\L 8dd	.
.	8cc\J 8ee	.
8r	16dd\LL 16ff	.
.	16cc\ 16ee	.
8G\	16dd\ 16ff	.
.	16b\JJ 16dd	.
=76	=76	=76
8.c\L	8.cc\L) 8.ee	.
16G\Jk	16b\Jk 16dd	.
16C/LL	16cc\LL	.
16D/	16dd\	.
16E/	16ee\	.
16F#X/JJ	16ff#X\JJ	.
!	!LO:TX:t=P:problem:mixed beam	!
8G/L	8gg\L	.
8GG/J	8g/J	.
=77||	=77||	=77||
*M2/2	*M2/2	*
*met(c|)	*met(c|)	*
4D\ 4F#X 4A 4c	16r	.
!	!LO:TX:b:i:t=al piacere	!
.	(16dd\LL	f
.	16ee-X\	.
.	16een\JJ	.
4r	32ff\LLL	.
.	32ff#X\	.
.	32gg\	.
.	32gg#X\	.
.	32aa\	.
.	32bb-X\	.
.	32bbn\	.
.	32ccc\JJJ	.
2r	16ddd\LL	.
.	16ccc#X\	.
.	16cccn'\)	.
.	16bb'\JJ	.
.	16aa'\LL	.
.	16gg#'\	.
.	16ff#X'\	.
.	16aa'\JJ	.
!!LO:LB:g=original
=78	=78	=78
2r	8.aa\L	.
.	16bb\Jk	.
.	(16ff#X\LL	.
.	16gg\	.
.	16aa\	.
.	16gg\JJ	.
8r	4gg\)	.
(8G\L 8B	.	.
8A\ 8c	4r	.
8B\J) 8d	.	.
*clefG2	*	*
=79	=79	=79
4c/ 4e	8r	.
!	!LO:TX:b:i:t=tempo primo	!
.	8qff#X/	.
.	8gg\L	.
.	8qff#/	.
8c/L 8e	8gg\	.
.	8qff#/	.
[8e/J 8g	8gg\J	.
8e/L] 8g	[<2ggTT\	.
8d/ 8f	.	.
8c/ 8e	.	.
8B/J 8d	.	.
=80	=80	=80
8d/L 8f	1gg_<TTT	.
8c/ 8e	.	.
8f/ 8a	.	.
8e/J 8g	.	.
4e/ 4g	.	.
4r	.	.
=81	=81	=81
4c/ 4e	1gg_<TTT	.
8c/L 8e	.	.
[8e/J 8g	.	.
8e/L] 8g	.	.
8d/ 8f	.	.
8c/ 8e	.	.
8B/J 8d	.	.
=82	=82	=82
8d/L 8f	1gg_<TTT	.
8c/ 8e	.	.
8f/ 8a	.	.
8e/J 8g	.	.
4e/ 4g	.	.
4r	.	.
=83	=83	=83
4B/ 4d	1gg_<TTT	.
8B/L 8d	.	.
8d/J 8f	.	.
4c/ 4e	.	.
8c/L 8e	.	.
(8e/J 8g	.	.
=84	=84	=84
8e/L) 8g	1ggTTT]	.
(8d/ 8f	.	.
8c/ 8e	.	.
8d/J) 8f	.	.
8c/L 8e	.	.
8G/J 8d	.	.
4G/ 4d	.	.
.	16qqaa/LL	.
.	(16qqbb/JJ	.
*clefF4	*	*
=85	=85	=85
8E\L	8ccc\L)	.
8c\	8cc'\ 8ccc	.
8G\	8cc'\ 8ccc	.
8c\J	8cc'\J 8ccc	.
8F\L	(8cc\L 8ccc	.
8d\	8aa\	.
8A\	8gg\	.
8d\J	8ff\J)	.
!!LO:LB:g=original
=86	=86	=86
8G\L	4ee\	.
8e\	.	.
8c\	2gg\	rf
8e\J	.	.
8G\L	.	.
8f\	.	.
8d\	(4b\	.
8f\J	.	.
=87	=87	=87
8E\L	8cc\L)	.
8c\	8cc'\ 8ccc	.
8G\	8cc'\ 8ccc	.
8c\J	8cc'\J 8ccc	.
8F\L	8cc'\L 8ccc	.
8d\	(8aa\	.
8A\	8gg\	.
8d\J	8ff\J)	.
=88	=88	=88
8G\L	4ee\	.
8e\	.	.
8c\	2gg\	rf
8e\J	.	.
8G\L	.	.
8f\	.	.
8d\	4b\	.
8f\J	.	.
=89	=89	=89
4A-X\ 4c 4e-X	16r	.
.	16cc\LL	f
.	(16ee-X\	.
.	16cc\JJ	.
4r	16aa-X\LL	.
.	16ee-\	.
.	16ccc\)	.
.	16aa-\JJ	.
2r	8ccc\L 8eee-X	p
.	8ccc\ 8eee-	.
.	8ccc\ 8eee-	.
.	8ccc\J 8eee-	.
*clefG2	*	*
=90	=90	=90
8r	8ccc\L 8eee-X	.
(8aa-X\L	8ccc\ 8eee-	.
8gg\	8ccc\ 8eee-	.
8ff#X\J)	8ccc\J 8eee-	.
4gg\	8ccc\L 8ddd	.
.	8ccc\ 8ddd	.
4gg\	8bb\ 8ddd	.
.	8bb\J 8ddd	.
=91	=91	=91
8r	8ccc\L	.
(8a-X/L	8cc\ 8ee-X	.
8g/	8cc\ 8ee-	.
8f#X/J)	8cc\J 8ee-	.
4g/	8cc\L 8dd	.
.	8cc\ 8dd	.
4g/	8b\ 8dd	.
.	8b\J 8dd	.
*clefF4	*	*
=92	=92	=92
!	!LO:TX:t=P:problem:mixed beam	!
(8A-X\L	8cc\L	.
8G\	8c/ 8e-X	.
8F#X\J)	8c/ 8e-	.
8r	8c/J 8e-	.
4G\	8c/L 8d	.
.	8c/ 8d	.
4G\	8B/ 8d	.
.	8B/J 8d	.
!!LO:LB:g=original
=93	=93	=93
(>16CC/LL	8c/L	.
16C\	.	.
16CC/	8en/ 8g	.
16C\JJ)	.	.
*rep	*	*
(>16CC/LL	8e/ 8g	.
16C\	.	.
16CC/	8e/J 8g	.
16C\JJ)	.	.
*Xrep	*	*
*rep	*	*
(>16CC/LL	(8e/L 8g	.
16C\	.	.
16CC/	8d/ 8f	.
16C\JJ)	.	.
*Xrep	*	*
*rep	*	*
(>16CC/LL	8c/ 8e	.
16C\	.	.
16CC/	8B/J) 8d	.
16C\JJ)	.	.
*Xrep	*	*
=94	=94	=94
*	*^	*
(>16CC/LL	8d/L 8f	2ryy	.
16C\	.	.	.
16CC/	8c/ 8e	.	.
16C\JJ)	.	.	.
*rep	*	*	*
(>16CC/LL	8f/ 8a	.	.
16C\	.	.	.
16CC/	8e/J 8g	.	.
16C\JJ)	.	.	.
*Xrep	*	*	*
*rep	*	*	*
(>16CC/LL	8ryy	2d/ 2bn	rf
16C\	.	.	.
16CC/	8a-X\L	.	.
16C\JJ)	.	.	.
*Xrep	*	*	*
*rep	*	*	*
(>16CC/LL	8g\	.	.
16C\	.	.	.
16CC/	8f\J	.	.
16C\JJ)	.	.	.
*Xrep	*	*	*
*	*v	*v	*
=95	=95	=95
16CC/LL	8e/L 8cc	.
16C\	.	.
16CC/	8e'/ 8g	.
16C\JJ	.	.
*rep	*	*
16CC/LL	8e'/ 8g	.
16C\	.	.
16CC/	8e'/J 8g	.
16C\JJ	.	.
*Xrep	*	*
*rep	*	*
16CC/LL	(8e/L 8g	.
16C\	.	.
16CC/	8d/ 8f	.
16C\JJ	.	.
*Xrep	*	*
*rep	*	*
16CC/LL	8c/ 8e	.
16C\	.	.
16CC/	8B/J) 8d	.
16C\JJ	.	.
*Xrep	*	*
=96	=96	=96
*	*^	*
16CC/LL	8d/L 8f	2ryy	.
16C\	.	.	.
16CC/	8c/ 8e	.	.
16C\JJ	.	.	.
*rep	*	*	*
16CC/LL	8f/ 8a	.	.
16C\	.	.	.
16CC/	8e/J 8g	.	.
16C\JJ	.	.	.
*Xrep	*	*	*
*rep	*	*	*
16CC/LL	8ryy	2d/ 2bn	rf
16C\	.	.	.
16CC/	8a-X\L	.	.
16C\JJ	.	.	.
*Xrep	*	*	*
*rep	*	*	*
16CC/LL	8g\	.	.
16C\	.	.	.
16CC/	8f\J	.	.
16C\JJ	.	.	.
*Xrep	*	*	*
*	*v	*v	*
=97	=97	=97
4CC/ 4C	4e/ 4g 4cc	.
4r	4r	.
4CC/ 4C	4a\ 4cc 4ee 4ccc	.
4r	4r	.
=98	=98	=98
2CC/ 2C 2E 2G	2c</	.
4r	4r	.
4ryy	4ryy	.
==	==	==
*-	*-	*-
!!!RDF**kern: > = above
!!!RDF**kern: < = below
!!!system-decoration: {(s1,s2)}
!!!ENC: Marta Opryszak
!!!END: 2022-07-28
!!!ENC: Urszula Świątek
!!!END: 2022-08-24
!!!YEC: Copyright 2022 Narodowy Instytut Fryderyka Chopina (https://polishscores.org)
!!!YEM: License CC-BY-4.0 (https://creativecommons.org/licenses/by/4.0)
